proprietary/assets/icons/medisch/tabletten.svg

<svg height="64" viewBox="0 0 64 64" width="64" xmlns="http://www.w3.org/2000/svg"><path d="m0 0h64v64h-64z" fill="none"/><path d="m55 21.8c-7-7.6-15.9-10.5-20.2-6.5-.6.6-5.6 5-6.2 5.6-4.3 4-2.2 13.1 4.8 20.7s15.9 10.5 20.3 6.5c.6-.6 5.6-5 6.2-5.6 4.2-4 2.1-13.1-4.9-20.7zm-9 14.9c-1.2-1-2.4-2.1-3.6-3.4-5.5-6-7.7-12.8-5.1-15.2 1.7-1.6 5.1-1 8.7 1.3zm11.1 3c-1.6 1.5-4.7 1-8.1-.9v-17.2c1 .9 2.1 1.8 3.1 2.9 5.4 5.9 7.7 12.7 5 15.2zm-25.3 3.3c-1.1-1.2-2.1-2.5-3-3.8-.8-1.1-1.5-2.3-2.1-3.4l-10.5-10.6c1.3-.2 2.7-.3 4.2-.3 1.4 0 2.7 0 4 .2.2-1.4.6-2.6 1.3-3.7-1.7-.2-3.4-.4-5.3-.3-10.4.1-18.5 4.7-18.4 10.5 0 .9.1 7.4.1 8.3.1 5.8 8.3 10.2 18.7 10.1 5.8-.1 10.9-1.6 14.2-3.9-1.1-1-2.2-2-3.2-3.1zm-11.2-4.9c-8.1.1-14.7-2.7-14.7-6.4 0-2.4 2.7-4.5 6.9-5.7l11.8 11.8c-1.3.1-2.6.3-4 .3z"/></svg>

<?xml version="1.0" encoding="utf-8"?>
<!-- Generator: Adobe Illustrator 21.0.2, SVG Export Plug-In . SVG Version: 6.00 Build 0)  -->
<svg version="1.2" baseProfile="tiny" xmlns="http://www.w3.org/2000/svg" xmlns:xlink="http://www.w3.org/1999/xlink" x="0px"
	 y="0px" width="64px" height="64px" viewBox="0 0 64 64" xml:space="preserve">
<g id="Box">
	<rect fill="none" width="64" height="64"/>
</g>
<g id="Icon">
	<g>
		<path d="M55,21.8c-7-7.6-15.9-10.5-20.2-6.5c-0.6,0.6-5.6,5-6.2,5.6c-4.3,4-2.2,13.1,4.8,20.7c7,7.6,15.9,10.5,20.3,6.5
			c0.6-0.6,5.6-5,6.2-5.6C64.1,38.5,62,29.4,55,21.8z M46,36.7c-1.2-1-2.4-2.1-3.6-3.4c-5.5-6-7.7-12.8-5.1-15.2
			c1.7-1.6,5.1-1,8.7,1.3V36.7z M57.1,39.7c-1.6,1.5-4.7,1-8.1-0.9V21.6c1,0.9,2.1,1.8,3.1,2.9C57.5,30.4,59.8,37.2,57.1,39.7z
			 M31.8,43c-1.1-1.2-2.1-2.5-3-3.8c-0.8-1.1-1.5-2.3-2.1-3.4L16.2,25.2c1.3-0.2,2.7-0.3,4.2-0.3c1.4,0,2.7,0,4,0.2
			c0.2-1.4,0.6-2.6,1.3-3.7c-1.7-0.2-3.4-0.4-5.3-0.3C10,21.2,1.9,25.8,2,31.6c0,0.9,0.1,7.4,0.1,8.3c0.1,5.8,8.3,10.2,18.7,10.1
			c5.8-0.1,10.9-1.6,14.2-3.9C33.9,45.1,32.8,44.1,31.8,43z M20.6,38.1c-8.1,0.1-14.7-2.7-14.7-6.4c0-2.4,2.7-4.5,6.9-5.7l11.8,11.8
			C23.3,37.9,22,38.1,20.6,38.1z"/>
	</g>
</g>
</svg>
